src/static/logos/codeschool.svg

<?xml version="1.0" encoding="UTF-8" standalone="no"?>
<svg width="256px" height="256px" viewBox="0 0 256 256" version="1.1" xmlns="http://www.w3.org/2000/svg" xmlns:xlink="http://www.w3.org/1999/xlink" preserveAspectRatio="xMidYMid">
    <g>
        <path d="M128,1.34357172e-14 C57.2509091,1.34357172e-14 0,57.2509091 0,128 C0,198.749091 57.2509091,256 128,256 C198.749091,256 256,198.749091 256,128 C256,57.2509091 198.283636,0 128,0 L128,1.34357172e-14 Z M128,232.727273 C69.8181818,232.727273 22.8072727,185.716364 22.8072727,128 C22.8072727,69.8181818 69.8181818,22.8072727 128,22.8072727 C186.181818,22.8072727 232.727273,69.8181818 232.727273,128 C232.727273,185.716364 185.716364,232.727273 128,232.727273 L128,232.727273 Z M114.036364,162.909091 L76.3345455,128 L114.036364,92.6254545 L114.036364,59.5781818 L41.8909091,128 L114.036364,195.956364 L114.036364,162.909091 Z M141.498182,59.5781818 L141.498182,92.6254545 L179.2,128 L141.498182,162.909091 L141.498182,195.956364 L213.643636,128 L141.498182,59.5781818 Z" fill="#53ADC0"></path>
    </g>
</svg>

<svg width="256" height="256" xmlns="http://www.w3.org/2000/svg" preserveAspectRatio="xMidYMid"><path d="M128 0C57.25 0 0 57.25 0 128s57.25 128 128 128 128-57.25 128-128S198.284 0 128 0zm0 232.727c-58.182 0-105.193-47.01-105.193-104.727C22.807 69.818 69.818 22.807 128 22.807c58.182 0 104.727 47.011 104.727 105.193 0 57.716-47.01 104.727-104.727 104.727zm-13.964-69.818L76.335 128l37.701-35.375V59.578L41.891 128l72.145 67.956V162.91zm27.462-103.33v33.046L179.2 128l-37.702 34.91v33.046L213.644 128l-72.146-68.422z" fill="#53ADC0"/></svg>
